Simply-Blue-Circles/scalable/apps/simple-scan.svg

<svg xmlns="http://www.w3.org/2000/svg" width="48" height="48" viewBox="0 0 12.7 12.7"><path fill="#2c89a0" d="M6.344.073a6.29 6.29 0 0 0-6.29 6.29 6.29 6.29 0 0 0 6.29 6.288 6.29 6.29 0 0 0 6.29-6.289 6.29 6.29 0 0 0-6.29-6.29zm-.018.936a5.407 5.407 0 0 1 5.407 5.407 5.407 5.407 0 0 1-5.407 5.407A5.407 5.407 0 0 1 .92 6.416 5.407 5.407 0 0 1 6.326 1.01zm-2.36 1.469c-.284 0-.52.098-.72.276A.834.834 0 0 0 3 3.122a.757.757 0 0 0 .031.552l.49.98c.044.087.1.21.185.337.117-.035.242-.06.368-.06h4.69c.125 0 .25.025.367.06.085-.127.141-.25.184-.337l.49-.98a.755.755 0 0 0 .031-.552.834.834 0 0 0-.245-.368 1.048 1.048 0 0 0-.72-.276H3.966zm.062.981h4.781l-.383.767c-.058.116-.087.181-.107.214h-3.8c-.022-.032-.05-.098-.108-.215l-.383-.766zm.429 1.962c-.24 0-.459.07-.644.215a.85.85 0 0 0-.337.658v4.031H9.36v-4.03a.852.852 0 0 0-.337-.66 1.027 1.027 0 0 0-.644-.214H4.457zm0 .49H8.38v2.943H4.457V5.91zM7.89 9.344h.49v.49h-.49v-.49z"/></svg>

<?xml version="1.0" encoding="UTF-8" standalone="no"?>
<svg
   xmlns:dc="http://purl.org/dc/elements/1.1/"
   xmlns:cc="http://creativecommons.org/ns#"
   xmlns:rdf="http://www.w3.org/1999/02/22-rdf-syntax-ns#"
   xmlns:svg="http://www.w3.org/2000/svg"
   xmlns="http://www.w3.org/2000/svg"
   xmlns:sodipodi="http://sodipodi.sourceforge.net/DTD/sodipodi-0.dtd"
   xmlns:inkscape="http://www.inkscape.org/namespaces/inkscape"
   width="48"
   height="48"
   viewBox="0 0 12.7 12.7"
   version="1.1"
   id="svg4"
   sodipodi:docname="simple-scan.svg"
   inkscape:version="0.92.4 (5da689c313, 2019-01-14)">
  <metadata
     id="metadata10">
    <rdf:RDF>
      <cc:Work
         rdf:about="">
        <dc:format>image/svg+xml</dc:format>
        <dc:type
           rdf:resource="http://purl.org/dc/dcmitype/StillImage" />
        <dc:title></dc:title>
      </cc:Work>
    </rdf:RDF>
  </metadata>
  <defs
     id="defs8" />
  <sodipodi:namedview
     pagecolor="#ffffff"
     bordercolor="#666666"
     borderopacity="1"
     objecttolerance="10"
     gridtolerance="10"
     guidetolerance="10"
     inkscape:pageopacity="0"
     inkscape:pageshadow="2"
     inkscape:window-width="1087"
     inkscape:window-height="480"
     id="namedview6"
     showgrid="false"
     inkscape:zoom="4.9166667"
     inkscape:cx="2.1355932"
     inkscape:cy="24"
     inkscape:window-x="0"
     inkscape:window-y="25"
     inkscape:window-maximized="0"
     inkscape:current-layer="svg4" />
  <path
     d="m 6.344,0.073 a 6.29,6.29 0 0 0 -6.29,6.29 6.29,6.29 0 0 0 6.29,6.288 6.29,6.29 0 0 0 6.29,-6.289 6.29,6.29 0 0 0 -6.29,-6.29 z M 6.326,1.009 A 5.407,5.407 0 0 1 11.733,6.416 5.407,5.407 0 0 1 6.326,11.823 5.407,5.407 0 0 1 0.92,6.416 5.407,5.407 0 0 1 6.326,1.01 Z m -2.36,1.469 c -0.284,0 -0.52,0.098 -0.72,0.276 A 0.834,0.834 0 0 0 3,3.122 0.757,0.757 0 0 0 3.031,3.674 l 0.49,0.98 c 0.044,0.087 0.1,0.21 0.185,0.337 0.117,-0.035 0.242,-0.06 0.368,-0.06 h 4.69 c 0.125,0 0.25,0.025 0.367,0.06 0.085,-0.127 0.141,-0.25 0.184,-0.337 l 0.49,-0.98 A 0.755,0.755 0 0 0 9.836,3.122 0.834,0.834 0 0 0 9.591,2.754 1.048,1.048 0 0 0 8.871,2.478 Z M 4.028,3.459 H 8.809 L 8.426,4.226 C 8.368,4.342 8.339,4.407 8.319,4.44 h -3.8 C 4.497,4.408 4.469,4.342 4.411,4.225 Z m 0.429,1.962 c -0.24,0 -0.459,0.07 -0.644,0.215 A 0.85,0.85 0 0 0 3.476,6.294 v 4.031 H 9.36 V 6.295 A 0.852,0.852 0 0 0 9.023,5.635 1.027,1.027 0 0 0 8.379,5.421 Z m 0,0.49 H 8.38 V 8.854 H 4.457 V 5.91 Z M 7.89,9.344 h 0.49 v 0.49 H 7.89 Z"
     id="path2"
     inkscape:connector-curvature="0"
     style="fill:#2c89a0" />
</svg>
